svg/fluentui-system-icons/ic_fluent_play_circle_hint_16_filled.svg

<svg width="16" height="16" viewBox="0 0 16 16" fill="none" xmlns="http://www.w3.org/2000/svg">
<path d="M8 2C7.59993 2 7.20852 2.03923 6.82957 2.11419C6.55868 2.16778 6.38252 2.43083 6.43611 2.70172C6.48971 2.97261 6.75275 3.14877 7.02364 3.09518C7.33902 3.03279 7.66543 3 8 3C8.33457 3 8.66098 3.03279 8.97636 3.09518C9.24725 3.14877 9.51029 2.97261 9.56388 2.70172C9.61748 2.43083 9.44132 2.16778 9.17043 2.11419C8.79148 2.03923 8.40007 2 8 2ZM11.334 3.01091C11.1046 2.85728 10.794 2.91876 10.6404 3.14823C10.4868 3.3777 10.5483 3.68825 10.7777 3.84187C11.3232 4.20706 11.7929 4.6768 12.1581 5.22227C12.3117 5.45174 12.6223 5.51322 12.8518 5.3596C13.0812 5.20597 13.1427 4.89542 12.9891 4.66595C12.5512 4.01186 11.9881 3.44881 11.334 3.01091ZM5.22227 3.84187C5.45174 3.68825 5.51322 3.3777 5.3596 3.14823C5.20597 2.91877 4.89542 2.85728 4.66595 3.01091C4.01186 3.44881 3.44881 4.01186 3.01091 4.66595C2.85728 4.89542 2.91876 5.20597 3.14823 5.3596C3.3777 5.51322 3.68825 5.45174 3.84187 5.22227C4.20706 4.6768 4.6768 4.20706 5.22227 3.84187ZM13.8858 6.82957C13.8322 6.55868 13.5692 6.38252 13.2983 6.43611C13.0274 6.48971 12.8512 6.75275 12.9048 7.02364C12.9672 7.33902 13 7.66543 13 8C13 8.33457 12.9672 8.66098 12.9048 8.97636C12.8512 9.24725 13.0274 9.51029 13.2983 9.56388C13.5692 9.61748 13.8322 9.44132 13.8858 9.17043C13.9608 8.79148 14 8.40007 14 8C14 7.59993 13.9608 7.20852 13.8858 6.82957ZM3.09518 7.02364C3.14877 6.75275 2.97261 6.48971 2.70172 6.43612C2.43083 6.38252 2.16778 6.55868 2.11419 6.82957C2.03923 7.20852 2 7.59993 2 8C2 8.40007 2.03923 8.79148 2.11419 9.17043C2.16778 9.44132 2.43083 9.61748 2.70172 9.56389C2.97261 9.51029 3.14877 9.24725 3.09518 8.97636C3.03279 8.66098 3 8.33457 3 8C3 7.66543 3.03279 7.33902 3.09518 7.02364ZM12.9891 11.334C13.1427 11.1046 13.0812 10.794 12.8518 10.6404C12.6223 10.4868 12.3117 10.5483 12.1581 10.7777C11.7929 11.3232 11.3232 11.7929 10.7777 12.1581C10.5483 12.3117 10.4868 12.6223 10.6404 12.8518C10.794 13.0812 11.1046 13.1427 11.334 12.9891C11.9881 12.5512 12.5512 11.9881 12.9891 11.334ZM3.84187 10.7777C3.68825 10.5483 3.3777 10.4868 3.14823 10.6404C2.91877 10.794 2.85728 11.1046 3.01091 11.334C3.44881 11.9881 4.01186 12.5512 4.66595 12.9891C4.89542 13.1427 5.20597 13.0812 5.3596 12.8518C5.51322 12.6223 5.45174 12.3117 5.22227 12.1581C4.6768 11.7929 4.20706 11.3232 3.84187 10.7777ZM7.02364 12.9048C6.75275 12.8512 6.48971 13.0274 6.43612 13.2983C6.38252 13.5692 6.55868 13.8322 6.82957 13.8858C7.20852 13.9608 7.59993 14 8 14C8.40007 14 8.79148 13.9608 9.17043 13.8858C9.44132 13.8322 9.61748 13.5692 9.56389 13.2983C9.51029 13.0274 9.24725 12.8512 8.97636 12.9048C8.66098 12.9672 8.33457 13 8 13C7.66543 13 7.33902 12.9672 7.02364 12.9048ZM12 8C12 10.2091 10.2091 12 8 12C5.79086 12 4 10.2091 4 8C4 5.79086 5.79086 4 8 4C10.2091 4 12 5.79086 12 8ZM10.5 8.00055C10.5 7.82048 10.4032 7.65432 10.2465 7.56554L7.61975 6.07709C7.11977 5.79378 6.5 6.15495 6.5 6.72962V9.27154C6.5 9.84621 7.11978 10.2074 7.61976 9.92406L10.2465 8.43557C10.4032 8.34679 10.5 8.18063 10.5 8.00055Z" fill="#212121"/>
</svg>

<svg xmlns="http://www.w3.org/2000/svg" width="16" height="16"><path d="M8 2c-.4 0-.791.04-1.17.114a.5.5 0 0 0 .194.981 5.027 5.027 0 0 1 1.952 0 .5.5 0 0 0 .194-.98A6.028 6.028 0 0 0 8 2Zm3.334 1.01a.5.5 0 1 0-.556.832 5.03 5.03 0 0 1 1.38 1.38.5.5 0 0 0 .831-.556 6.03 6.03 0 0 0-1.655-1.655Zm-6.112.832a.5.5 0 1 0-.556-.831A6.03 6.03 0 0 0 3.01 4.666a.5.5 0 1 0 .83.556 5.03 5.03 0 0 1 1.381-1.38Zm8.664 2.988a.5.5 0 1 0-.981.194 5.026 5.026 0 0 1 0 1.952.5.5 0 0 0 .98.194 6.024 6.024 0 0 0 0-2.34Zm-10.79.194a.5.5 0 0 0-.982-.194 6.028 6.028 0 0 0 0 2.34.5.5 0 0 0 .981-.194 5.027 5.027 0 0 1 0-1.952Zm9.893 4.31a.5.5 0 0 0-.83-.556 5.03 5.03 0 0 1-1.381 1.38.5.5 0 0 0 .556.831 6.03 6.03 0 0 0 1.655-1.655Zm-9.147-.556a.5.5 0 0 0-.831.556 6.03 6.03 0 0 0 1.655 1.655.5.5 0 0 0 .556-.83 5.03 5.03 0 0 1-1.38-1.381Zm3.182 2.127a.5.5 0 0 0-.194.98 6.024 6.024 0 0 0 2.34 0 .5.5 0 1 0-.194-.98 5.026 5.026 0 0 1-1.952 0ZM12 8a4 4 0 1 1-8 0 4 4 0 0 1 8 0Zm-1.5 0a.5.5 0 0 0-.254-.434L7.62 6.077a.75.75 0 0 0-1.12.653v2.542a.75.75 0 0 0 1.12.652l2.626-1.488A.5.5 0 0 0 10.5 8Z"/></svg>
